X: 1
T: Billy Brocker's
M: 4/4
L: 1/8
R: reel
K: Dmaj
A~F3 AFDB|ADFA ~G3B|A~F3 ABdf|efge fedB|
A~F3 AFDB|ADFA ~G3B|A~F3 ABdf|efge fedB|
d3e faaf|e~A3 e~A3|dcde faaf|gfeg fedB|
d3e faaf|e~A3 e~A3|dfaf g2fg|afeg fedB|
